X:19010
T:Shenandoah
R:Shanty
C:Trad.
O:England
Z:Paul Hardy's Session Tunebook 2015 (see www.paulhardy.net). Creative Commons cc by-nc-sa licenced.
M:4/4
L:1/8
Q:1/4=80
K:G
D2|"G"GG G3 "Am"ABc|"C"e4"G"d2 gf|"C"e4-ed "G"ed|"D"B/d/-"G"d4 z2"D"d|
"Em"eee3B "Bm"dB|"D"A2 "Em"G3z "D7"GA|"G"B4-BG "D"Be|"Bm"d2"G"GA "C"B3G|"D7"A2 "G"G4|]

